img/union.svg

<svg fill="none" height="25" viewBox="0 0 25 25" width="25" xmlns="http://www.w3.org/2000/svg"><path d="m24.2893 12.1789h-.3683zm0 11.5896h.3683v.3683h-.3683zm-11.5552 0v-.3682zm0-22.811029c-6.17727 0-11.18685 5.022949-11.18685 11.221429h-.736521c0-6.60317 5.337261-11.957952 11.923371-11.957951zm11.1869 11.221429c0-6.19848-5.0095-11.221428-11.1869-11.221429v-.736522c6.5862 0 11.9235 5.354781 11.9235 11.957951zm0 11.5896v-11.5896h.7366v11.5896zm-11.1869-.3682h11.5552v.7365h-11.5552zm-11.18685-11.2214c0 6.1984 5.00958 11.2214 11.18685 11.2214v.7365c-6.58611 0-11.923372-5.3548-11.923371-11.9579z" fill="#fff500"/></svg>

<svg width="25" height="25" viewBox="0 0 25 25" fill="none" xmlns="http://www.w3.org/2000/svg">
<path d="M24.2893 12.1789L23.921 12.1789L24.2893 12.1789ZM24.2893 23.7685L24.6576 23.7685L24.6576 24.1368L24.2893 24.1368L24.2893 23.7685ZM12.7341 23.7685L12.7341 23.4003L12.7341 23.7685ZM12.7341 0.957471C6.55683 0.957471 1.54725 5.98042 1.54725 12.1789L0.810729 12.1789C0.810729 5.57573 6.14799 0.220948 12.7341 0.220949L12.7341 0.957471ZM23.921 12.1789C23.921 5.98042 18.9115 0.957472 12.7341 0.957471L12.7341 0.220949C19.3203 0.220949 24.6576 5.57573 24.6576 12.1789L23.921 12.1789ZM23.921 23.7685L23.921 12.1789L24.6576 12.1789L24.6576 23.7685L23.921 23.7685ZM12.7341 23.4003L24.2893 23.4003L24.2893 24.1368L12.7341 24.1368L12.7341 23.4003ZM1.54725 12.1789C1.54725 18.3773 6.55683 23.4003 12.7341 23.4003L12.7341 24.1368C6.14799 24.1368 0.810728 18.782 0.810729 12.1789L1.54725 12.1789Z" fill="#FFF500"/>
</svg>
